%
(Header)
(Generated by gcodetools from Inkscape.)
(Using default header. To add your own header create file "header" in the output dir.)
M3
(Header end.)
G21 (All units in mm)

(Start cutting path id: path12666)
(Change tool to Default tool)

G00 Z5.000000
G00 X19.414536 Y62.083851

G01 Z0.000000 F100.0(Penetrate)
G02 X19.573240 Y61.255756 Z0.000000 I-0.217935 J-0.471022 F400.000000
G02 X18.863392 Y60.892666 Z0.000000 I-0.869372 J0.824208
G02 X17.363160 Y61.614505 Z0.000000 I-0.201648 J1.500826
G02 X17.032166 Y63.186140 Z0.000000 I2.108238 J1.264676
G02 X18.521619 Y65.328689 Z0.000000 I2.790958 J-0.351221
G02 X21.067971 Y65.657406 Z0.000000 I1.719785 J-3.295224
G02 X23.873420 Y63.418491 Z0.000000 I-0.918831 J-4.028460
G02 X24.179277 Y59.879272 Z0.000000 I-4.523926 J-2.173780
G02 X21.196218 Y56.403178 Z0.000000 I-5.244616 J1.482719
G02 X16.658813 Y56.127925 Z0.000000 I-2.626397 J5.758781
G02 X12.508438 Y59.852921 Z0.000000 I2.043078 J6.451051
G02 X12.267425 Y65.390719 Z0.000000 I6.994291 J3.078545
G02 X16.733243 Y70.217367 Z0.000000 I7.652409 J-2.601025
G02 X23.272549 Y70.422147 Z0.000000 I3.530567 J-8.229453
G02 X28.776677 Y65.216146 Z0.000000 I-3.157349 J-8.850822
G02 X28.944017 Y57.674693 Z0.000000 I-9.464135 J-3.982586
G02 X22.998232 Y51.492297 Z0.000000 I-10.047389 J3.712545
G02 X14.454234 Y51.363183 Z0.000000 I-4.434645 J10.698389
G02 X7.593030 Y58.048491 Z0.000000 I4.266944 J11.242730
G02 X7.502684 Y67.595298 Z0.000000 I11.932291 J4.886751
G02 X14.927327 Y75.135699 Z0.000000 I12.437215 J-4.820750
G02 X25.477128 Y75.186888 Z0.000000 I5.338907 J-13.165902
G02 X33.697014 Y67.023044 Z0.000000 I-5.374110 J-13.631080
G02 X33.708758 Y55.470115 Z0.000000 I-14.399285 J-5.791107
G00 Z5.000000

(End cutting path id: path12666)


(Footer)
M5
G00 X0.0000 Y0.0000
M2
(Using default footer. To add your own footer create file "footer" in the output dir.)
(end)
%