%
(Header)
(Generated by gcodetools from Inkscape.)
(Using default header. To add your own header create file "header" in the output dir.)
M3
(Header end.)
G21 (All units in mm)

(Start cutting path id: path13062)
(Change tool to Default tool)

G00 Z5.000000
G00 X26.114682 Y34.503401

G01 Z0.000000 F100.0(Penetrate)
G01 X26.410742 Y34.503401 Z0.000000 F400.000000
G01 X26.410742 Y34.132962 Z0.000000
G01 X26.114682 Y34.132962 Z0.000000
G01 X26.114682 Y34.503401 Z0.000000
G00 Z5.000000

(End cutting path id: path13062)


(Start cutting path id: path13062)
(Change tool to Default tool)

G00 Z5.000000
G00 X26.114682 Y36.310389

G01 Z0.000000 F100.0(Penetrate)
G01 X26.410742 Y36.310389 Z0.000000 F400.000000
G01 X26.410742 Y35.355121 Z0.000000
G01 X26.381573 Y34.834464 Z0.000000
G01 X26.145308 Y34.834464 Z0.000000
G01 X26.114682 Y35.355121 Z0.000000
G01 X26.114682 Y36.310389 Z0.000000
G00 Z5.000000

(End cutting path id: path13062)


(Start cutting path id: path13060)
(Change tool to Default tool)

G00 Z5.000000
G00 X25.124412 Y35.518464

G01 Z0.000000 F100.0(Penetrate)
G01 X25.124412 Y36.402269 Z0.000000 F400.000000
G01 X25.392762 Y36.402269 Z0.000000
G01 X25.392762 Y34.132962 Z0.000000
G01 X25.124412 Y34.132962 Z0.000000
G01 X25.124412 Y34.377977 Z0.000000
G02 X25.024791 Y34.247506 Z0.000000 I-0.562638 J0.326333
G02 X24.910023 Y34.160672 Z0.000000 I-0.355880 J0.351104
G02 X24.776670 Y34.110325 Z0.000000 I-0.247481 J0.453716
G02 X24.600838 Y34.090668 Z0.000000 I-0.175832 J0.776590
G02 X24.334637 Y34.152317 Z0.000000 I-0.000000 J0.605553
G02 X24.118099 Y34.326932 Z0.000000 I0.275884 J0.563690
G02 X23.986357 Y34.581660 Z0.000000 I0.605159 J0.474413
G02 X23.932880 Y34.948221 Z0.000000 I1.229570 J0.366561
G02 X23.986357 Y35.314782 Z0.000000 I1.283049 J-0.000000
G02 X24.118099 Y35.569510 Z0.000000 I0.736905 J-0.219687
G02 X24.334637 Y35.744125 Z0.000000 I0.492422 J-0.389075
G02 X24.600838 Y35.805774 Z0.000000 I0.266201 J-0.543905
G02 X24.776480 Y35.785740 Z0.000000 I-0.000000 J-0.779957
G02 X24.910023 Y35.734311 Z0.000000 I-0.115095 J-0.497963
G02 X25.024654 Y35.648661 Z0.000000 I-0.231736 J-0.429677
G02 X25.124412 Y35.518464 Z0.000000 I-0.455076 J-0.452002
G01 X25.124412 Y35.518464 Z0.000000
G00 Z5.000000

(End cutting path id: path13060)


(Start cutting path id: path13060)
(Change tool to Default tool)

G00 Z5.000000
G00 X24.209980 Y34.948221

G01 Z0.000000 F100.0(Penetrate)
G03 X24.246370 Y34.663839 Z0.000000 I1.129371 J0.000000 F400.000000
G03 X24.331029 Y34.482983 Z0.000000 I0.530234 J0.137961
G03 X24.476334 Y34.360149 Z0.000000 I0.325658 J0.237872
G03 X24.666466 Y34.315265 Z0.000000 I0.190132 J0.380264
G03 X24.856599 Y34.360149 Z0.000000 I-0.000000 J0.425150
G03 X25.001904 Y34.482983 Z0.000000 I-0.180352 J0.360705
G03 X25.087628 Y34.664080 Z0.000000 I-0.441979 J0.320054
G03 X25.124412 Y34.948221 Z0.000000 I-1.079053 J0.284140
G03 X25.087532 Y35.232246 Z0.000000 I-1.112117 J-0.000000
G03 X25.001904 Y35.412000 Z0.000000 I-0.519636 J-0.137263
G03 X24.856336 Y35.536007 Z0.000000 I-0.327845 J-0.237403
G03 X24.666466 Y35.581177 Z0.000000 I-0.189870 J-0.376466
G03 X24.476597 Y35.536007 Z0.000000 I-0.000000 J-0.421634
G03 X24.331029 Y35.412000 Z0.000000 I0.182278 J-0.361411
G03 X24.246467 Y35.232489 Z0.000000 I0.437521 J-0.315778
G03 X24.209980 Y34.948221 Z0.000000 I1.089122 J-0.284269
G01 X24.209980 Y34.948221 Z0.000000
G00 Z5.000000

(End cutting path id: path13060)


(Start cutting path id: path13058)
(Change tool to Default tool)

G00 Z5.000000
G00 X23.221169 Y36.402269

G01 Z0.000000 F100.0(Penetrate)
G01 X23.489519 Y36.402269 Z0.000000 F400.000000
G01 X23.489519 Y34.132962 Z0.000000
G01 X23.221169 Y34.132962 Z0.000000
G01 X23.221169 Y36.402269 Z0.000000
G00 Z5.000000

(End cutting path id: path13058)


(Start cutting path id: path13056)
(Change tool to Default tool)

G00 Z5.000000
G00 X22.936776 Y35.515548

G01 Z0.000000 F100.0(Penetrate)
G03 X22.890043 Y35.537871 Z0.000000 I-0.161840 J-0.278726 F400.000000
G03 X22.837604 Y35.553467 Z0.000000 I-0.128449 J-0.335944
G03 X22.784660 Y35.563019 Z0.000000 I-0.098215 J-0.392867
G03 X22.720930 Y35.566592 Z0.000000 I-0.063730 J-0.566496
G03 X22.513367 Y35.524315 Z0.000000 I0.000000 J-0.530662
G03 X22.370908 Y35.417834 Z0.000000 I0.146330 J-0.344308
G03 X22.286756 Y35.257317 Z0.000000 I0.343893 J-0.282606
G03 X22.249858 Y34.993432 Z0.000000 I0.925184 J-0.263885
G01 X22.249858 Y34.132962 Z0.000000
G01 X21.980050 Y34.132962 Z0.000000
G01 X21.980050 Y35.766396 Z0.000000
G01 X22.249858 Y35.766396 Z0.000000
G01 X22.249858 Y35.512631 Z0.000000
G02 X22.350555 Y35.644757 Z0.000000 I0.539731 J-0.306909
G02 X22.470080 Y35.732853 Z0.000000 I0.350747 J-0.350747
G02 X22.610909 Y35.785141 Z0.000000 I0.258960 J-0.481668
G02 X22.799684 Y35.805774 Z0.000000 I0.188775 J-0.853265
G02 X22.827330 Y35.804788 Z0.000000 I-0.000000 J-0.387999
G02 X22.860938 Y35.801398 Z0.000000 I-0.041218 J-0.576994
G02 X22.894373 Y35.797651 Z0.000000 I-0.058854 J-0.676172
G02 X22.935318 Y35.791190 Z0.000000 I-0.140097 J-1.020768
G01 X22.936776 Y35.515548 Z0.000000
G00 Z5.000000

(End cutting path id: path13056)


(Start cutting path id: path13054)
(Change tool to Default tool)

G00 Z5.000000
G00 X20.797269 Y35.578260

G01 Z0.000000 F100.0(Penetrate)
G03 X20.604193 Y35.533030 Z0.000000 I-0.000000 J-0.434710 F400.000000
G03 X20.455998 Y35.409083 Z0.000000 I0.183260 J-0.369681
G03 X20.368083 Y35.228889 Z0.000000 I0.429118 J-0.320905
G03 X20.330573 Y34.948221 Z0.000000 I1.031294 J-0.280669
G03 X20.367597 Y34.667190 Z0.000000 I1.085104 J-0.000000
G03 X20.454539 Y34.485901 Z0.000000 I0.527307 J0.141391
G03 X20.602547 Y34.363271 Z0.000000 I0.328084 J0.245349
G03 X20.797269 Y34.318182 Z0.000000 I0.194721 J0.397908
G03 X20.988961 Y34.363260 Z0.000000 I-0.000000 J0.430115
G03 X21.137081 Y34.487359 Z0.000000 I-0.184584 J0.370759
G03 X21.225171 Y34.668866 Z0.000000 I-0.437911 J0.324659
G03 X21.262506 Y34.948221 Z0.000000 I-1.026464 J0.279355
G03 X21.225249 Y35.226143 Z0.000000 I-1.055227 J0.000000
G03 X21.137081 Y35.407625 Z0.000000 I-0.527044 J-0.143891
G03 X20.988701 Y35.532895 Z0.000000 I-0.334894 J-0.246162
G03 X20.797269 Y35.578260 Z0.000000 I-0.191432 J-0.381229
G01 X20.797269 Y35.578260 Z0.000000
G00 Z5.000000

(End cutting path id: path13054)


(Start cutting path id: path13054)
(Change tool to Default tool)

G00 Z5.000000
G00 X20.797269 Y35.805774

G01 Z0.000000 F100.0(Penetrate)
G02 X21.118402 Y35.741957 Z0.000000 I0.000000 J-0.839888 F400.000000
G02 X21.347094 Y35.578260 Z0.000000 I-0.236949 J-0.572625
G02 X21.488033 Y35.328567 Z0.000000 I-0.524684 J-0.460781
G02 X21.546898 Y34.948221 Z0.000000 I-1.199342 J-0.380347
G02 X21.488231 Y34.569152 Z0.000000 I-1.253978 J-0.000000
G02 X21.347094 Y34.318182 Z0.000000 I-0.673522 J0.213594
G02 X21.118402 Y34.154485 Z0.000000 I-0.465640 J0.408928
G02 X20.797269 Y34.090668 Z0.000000 I-0.321133 J0.776073
G02 X20.474732 Y34.154607 Z0.000000 I-0.000000 J0.845471
G02 X20.245985 Y34.318182 Z0.000000 I0.235917 J0.571646
G02 X20.105938 Y34.568894 Z0.000000 I0.534615 J0.463106
G02 X20.047639 Y34.948221 Z0.000000 I1.204921 J0.379327
G02 X20.106134 Y35.328828 Z0.000000 I1.267483 J0.000000
G02 X20.245985 Y35.578260 Z0.000000 I0.666724 J-0.209895
G02 X20.474733 Y35.741834 Z0.000000 I0.464666 J-0.408071
G02 X20.797269 Y35.805774 Z0.000000 I0.322536 J-0.781528
G01 X20.797269 Y35.805774 Z0.000000
G00 Z5.000000

(End cutting path id: path13054)


(Start cutting path id: path13052)
(Change tool to Default tool)

G00 Z5.000000
G00 X17.563943 Y35.766396

G01 Z0.000000 F100.0(Penetrate)
G01 X17.832293 Y35.766396 Z0.000000 F400.000000
G01 X18.167730 Y34.491734 Z0.000000
G01 X18.501709 Y35.766396 Z0.000000
G01 X18.818187 Y35.766396 Z0.000000
G01 X19.153625 Y34.491734 Z0.000000
G01 X19.487604 Y35.766396 Z0.000000
G01 X19.755954 Y35.766396 Z0.000000
G01 X19.328636 Y34.132962 Z0.000000
G01 X19.012158 Y34.132962 Z0.000000
G01 X18.660678 Y35.471795 Z0.000000
G01 X18.307739 Y34.132962 Z0.000000
G01 X17.991261 Y34.132962 Z0.000000
G01 X17.563943 Y35.766396 Z0.000000
G00 Z5.000000

(End cutting path id: path13052)


(Start cutting path id: path13050)
(Change tool to Default tool)

G00 Z5.000000
G00 X15.886756 Y34.503401

G01 Z0.000000 F100.0(Penetrate)
G01 X16.194483 Y34.503401 Z0.000000 F400.000000
G01 X16.194483 Y34.252553 Z0.000000
G01 X15.955302 Y33.785857 Z0.000000
G01 X15.767165 Y33.785857 Z0.000000
G01 X15.886756 Y34.252553 Z0.000000
G01 X15.886756 Y34.503401 Z0.000000
G00 Z5.000000

(End cutting path id: path13050)


(Start cutting path id: path13048)
(Change tool to Default tool)

G00 Z5.000000
G00 X14.625219 Y35.578260

G01 Z0.000000 F100.0(Penetrate)
G03 X14.432144 Y35.533030 Z0.000000 I-0.000000 J-0.434710 F400.000000
G03 X14.283948 Y35.409083 Z0.000000 I0.183260 J-0.369681
G03 X14.196034 Y35.228889 Z0.000000 I0.429118 J-0.320905
G03 X14.158524 Y34.948221 Z0.000000 I1.031294 J-0.280669
G03 X14.195547 Y34.667190 Z0.000000 I1.085104 J0.000000
G03 X14.282489 Y34.485901 Z0.000000 I0.527307 J0.141391
G03 X14.430498 Y34.363271 Z0.000000 I0.328084 J0.245349
G03 X14.625219 Y34.318182 Z0.000000 I0.194721 J0.397908
G03 X14.816912 Y34.363260 Z0.000000 I-0.000000 J0.430115
G03 X14.965032 Y34.487359 Z0.000000 I-0.184584 J0.370759
G03 X15.053122 Y34.668866 Z0.000000 I-0.437911 J0.324659
G03 X15.090457 Y34.948221 Z0.000000 I-1.026464 J0.279355
G03 X15.053200 Y35.226143 Z0.000000 I-1.055227 J0.000000
G03 X14.965032 Y35.407625 Z0.000000 I-0.527044 J-0.143891
G03 X14.816651 Y35.532895 Z0.000000 I-0.334894 J-0.246162
G03 X14.625219 Y35.578260 Z0.000000 I-0.191432 J-0.381229
G01 X14.625219 Y35.578260 Z0.000000
G00 Z5.000000

(End cutting path id: path13048)


(Start cutting path id: path13048)
(Change tool to Default tool)

G00 Z5.000000
G00 X14.625219 Y35.805774

G01 Z0.000000 F100.0(Penetrate)
G02 X14.946352 Y35.741957 Z0.000000 I0.000000 J-0.839888 F400.000000
G02 X15.175045 Y35.578260 Z0.000000 I-0.236949 J-0.572625
G02 X15.315984 Y35.328567 Z0.000000 I-0.524684 J-0.460781
G02 X15.374849 Y34.948221 Z0.000000 I-1.199342 J-0.380347
G02 X15.316182 Y34.569152 Z0.000000 I-1.253978 J-0.000000
G02 X15.175045 Y34.318182 Z0.000000 I-0.673522 J0.213594
G02 X14.946352 Y34.154485 Z0.000000 I-0.465640 J0.408928
G02 X14.625219 Y34.090668 Z0.000000 I-0.321133 J0.776073
G02 X14.302683 Y34.154607 Z0.000000 I-0.000000 J0.845471
G02 X14.073935 Y34.318182 Z0.000000 I0.235917 J0.571646
G02 X13.933888 Y34.568894 Z0.000000 I0.534615 J0.463106
G02 X13.875590 Y34.948221 Z0.000000 I1.204921 J0.379327
G02 X13.934085 Y35.328828 Z0.000000 I1.267483 J-0.000000
G02 X14.073935 Y35.578260 Z0.000000 I0.666724 J-0.209895
G02 X14.302683 Y35.741834 Z0.000000 I0.464666 J-0.408071
G02 X14.625219 Y35.805774 Z0.000000 I0.322536 J-0.781528
G01 X14.625219 Y35.805774 Z0.000000
G00 Z5.000000

(End cutting path id: path13048)


(Start cutting path id: path13046)
(Change tool to Default tool)

G00 Z5.000000
G00 X13.163879 Y36.402269

G01 Z0.000000 F100.0(Penetrate)
G01 X13.432229 Y36.402269 Z0.000000 F400.000000
G01 X13.432229 Y34.132962 Z0.000000
G01 X13.163879 Y34.132962 Z0.000000
G01 X13.163879 Y36.402269 Z0.000000
G00 Z5.000000

(End cutting path id: path13046)


(Start cutting path id: path13044)
(Change tool to Default tool)

G00 Z5.000000
G00 X12.335494 Y36.402269

G01 Z0.000000 F100.0(Penetrate)
G01 X12.603844 Y36.402269 Z0.000000 F400.000000
G01 X12.603844 Y34.132962 Z0.000000
G01 X12.335494 Y34.132962 Z0.000000
G01 X12.335494 Y36.402269 Z0.000000
G00 Z5.000000

(End cutting path id: path13044)


(Start cutting path id: path13042)
(Change tool to Default tool)

G00 Z5.000000
G00 X11.895050 Y35.016767

G01 Z0.000000 F100.0(Penetrate)
G01 X11.895050 Y34.885509 Z0.000000 F400.000000
G01 X10.661223 Y34.885509 Z0.000000
G03 X10.718768 Y34.626733 Z0.000000 I0.852861 J0.053866
G03 X10.827483 Y34.462566 Z0.000000 I0.438761 J0.172478
G03 X10.994629 Y34.360221 Z0.000000 I0.316589 J0.329380
G03 X11.244593 Y34.318182 Z0.000000 I0.249964 J0.722116
G03 X11.397935 Y34.327867 Z0.000000 I-0.000000 J1.218712
G03 X11.543570 Y34.356101 Z0.000000 I-0.142944 J1.127041
G03 X11.686105 Y34.402518 Z0.000000 I-0.312182 J1.200701
G03 X11.832337 Y34.469858 Z0.000000 I-0.524484 J1.331386
G01 X11.832337 Y34.216092 Z0.000000
G02 X11.685696 Y34.162012 Z0.000000 I-0.637255 J1.502084
G02 X11.536278 Y34.122753 Z0.000000 I-0.479346 J1.520423
G02 X11.383757 Y34.098737 Z0.000000 I-0.305702 J1.445130
G02 X11.228550 Y34.090668 Z0.000000 I-0.155207 J1.488565
G02 X10.864381 Y34.155392 Z0.000000 I-0.000000 J1.056854
G02 X10.608720 Y34.318182 Z0.000000 I0.244529 J0.666185
G02 X10.445826 Y34.572463 Z0.000000 I0.498941 J0.498941
G02 X10.381206 Y34.933637 Z0.000000 I0.977020 J0.361174
G02 X10.443418 Y35.310453 Z0.000000 I1.172292 J0.000000
G02 X10.597053 Y35.569510 Z0.000000 I0.690382 J-0.234350
G02 X10.843246 Y35.739956 Z0.000000 I0.501331 J-0.461100
G02 X11.181881 Y35.805774 Z0.000000 I0.338635 J-0.838227
G02 X11.484901 Y35.746206 Z0.000000 I0.000000 J-0.800514
G02 X11.702538 Y35.592844 Z0.000000 I-0.225227 J-0.550725
G02 X11.839253 Y35.359779 Z0.000000 I-0.483806 J-0.440430
G02 X11.895050 Y35.016767 Z0.000000 I-1.026437 J-0.343012
G01 X11.895050 Y35.016767 Z0.000000
G00 Z5.000000

(End cutting path id: path13042)


(Start cutting path id: path13042)
(Change tool to Default tool)

G00 Z5.000000
G00 X11.626700 Y35.095522

G01 Z0.000000 F100.0(Penetrate)
G03 X11.589901 Y35.302247 Z0.000000 I-0.647255 J-0.008581 F400.000000
G03 X11.502734 Y35.447002 Z0.000000 I-0.395325 J-0.139430
G03 X11.367169 Y35.542095 Z0.000000 I-0.280232 J-0.255322
G03 X11.184798 Y35.578260 Z0.000000 I-0.182371 J-0.441744
G03 X10.974403 Y35.542289 Z0.000000 I-0.000000 J-0.633298
G03 X10.824567 Y35.451377 Z0.000000 I0.141845 J-0.402710
G03 X10.724253 Y35.308102 Z0.000000 I0.298766 J-0.315938
G03 X10.669974 Y35.094063 Z0.000000 I0.636105 J-0.275213
G01 X11.626700 Y35.095522 Z0.000000
G00 Z5.000000

(End cutting path id: path13042)


(Start cutting path id: path13040)
(Change tool to Default tool)

G00 Z5.000000
G00 X9.959722 Y35.118856

G01 Z0.000000 F100.0(Penetrate)
G01 X9.959722 Y34.132962 Z0.000000 F400.000000
G01 X9.691372 Y34.132962 Z0.000000
G01 X9.691372 Y35.110106 Z0.000000
G03 X9.662923 Y35.332165 Z0.000000 I-0.880867 J-0.000000
G03 X9.600949 Y35.457211 Z0.000000 I-0.331264 J-0.086296
G03 X9.494234 Y35.538929 Z0.000000 I-0.212135 J-0.166486
G03 X9.329683 Y35.572426 Z0.000000 I-0.164552 J-0.387425
G03 X9.129637 Y35.533521 Z0.000000 I-0.000000 J-0.533755
G03 X8.986953 Y35.433876 Z0.000000 I0.145886 J-0.360874
G03 X8.897932 Y35.281296 Z0.000000 I0.317750 J-0.287647
G03 X8.861529 Y35.056144 Z0.000000 I0.678070 J-0.225151
G01 X8.861529 Y34.132962 Z0.000000
G01 X8.591720 Y34.132962 Z0.000000
G01 X8.591720 Y36.402269 Z0.000000
G01 X8.861529 Y36.402269 Z0.000000
G01 X8.861529 Y35.512631 Z0.000000
G02 X8.971071 Y35.645724 Z0.000000 I0.658237 J-0.430136
G02 X9.087584 Y35.732853 Z0.000000 I0.390872 J-0.401225
G02 X9.223949 Y35.786066 Z0.000000 I0.264001 J-0.475202
G02 X9.389478 Y35.805774 Z0.000000 I0.165529 J-0.685292
G02 X9.646984 Y35.754925 Z0.000000 I-0.000000 J-0.677448
G02 X9.815338 Y35.630763 Z0.000000 I-0.163557 J-0.397990
G02 X9.915148 Y35.441094 Z0.000000 I-0.396125 J-0.329548
G02 X9.959722 Y35.118856 Z0.000000 I-1.142480 J-0.322237
G01 X9.959722 Y35.118856 Z0.000000
G00 Z5.000000

(End cutting path id: path13040)


(Footer)
M5
G00 X0.0000 Y0.0000
M2
(Using default footer. To add your own footer create file "footer" in the output dir.)
(end)
%