%
(Header)
(Generated by gcodetools from Inkscape.)
(Using default header. To add your own header create file "header" in the output dir.)
M3
(Header end.)
G21 (All units in mm)

(Start cutting path id: path3684)
(Change tool to Default tool)

G00 Z5.000000
G00 X27.948399 Y14.827589

G01 Z-1.000000 F100.0(Penetrate)
G02 X25.889508 Y9.151380 Z-1.000000 I-8.853882 J-0.000001 F400.000000
G02 X20.670387 Y6.115075 Z-1.000000 I-6.794991 J5.676207
G02 X14.718357 Y7.130806 Z-1.000000 I-1.575869 J8.712512
G02 X10.801602 Y11.726173 Z-1.000000 I4.376161 J7.696782
G01 X19.094517 Y14.827589 Z-1.000000
G01 X27.948399 Y14.827589 Z-1.000000
G00 Z5.000000

(End cutting path id: path3684)


(Footer)
M5
G00 X0.0000 Y0.0000
M2
(Using default footer. To add your own footer create file "footer" in the output dir.)
(end)
%