%
(Header)
(Generated by gcodetools from Inkscape.)
(Using default header. To add your own header create file "header" in the output dir.)
M3
(Header end.)
G21 (All units in mm)

(Start cutting path id: path1587)
(Change tool to Default tool)

G00 Z5.000000
G00 X18.294298 Y38.058404

G01 Z-0.125000 F100.0(Penetrate)
G03 X17.774048 Y37.856946 Z-0.125000 I0.098096 J-1.025811 F400.000000
G03 X17.419840 Y37.555291 Z-0.125000 I2.257375 J-3.009433
G01 X17.437760 Y37.554712 Z-0.125000
G01 X17.463263 Y37.541815 Z-0.125000
G02 X17.385925 Y37.503399 Z-0.125000 I-0.104561 J0.113446
G01 X17.374918 Y37.511867 Z-0.125000
G03 X17.331434 Y37.469495 Z-0.125000 I3.825943 J-3.969907
G02 X17.291066 Y37.431009 Z-0.125000 I-1.193319 J1.211240
G03 X16.922333 Y37.083324 Z-0.125000 I1.114573 J-1.551421
G03 X16.527412 Y36.346919 Z-0.125000 I1.722480 J-1.397831
G03 X16.309739 Y35.452595 Z-0.125000 I13.862383 J-3.847667
G03 X16.142590 Y34.650409 Z-0.125000 I301.839792 J-63.312005
G02 X15.976896 Y33.609127 Z-0.125000 I-4.134212 J0.124032
G03 X15.756271 Y32.578062 Z-0.125000 I6.767847 J-1.987307
G02 X15.368395 Y31.694391 Z-0.125000 I-1.465881 J0.116468
G03 X14.973151 Y30.814171 Z-0.125000 I1.104668 J-1.024876
G03 X14.888993 Y29.848202 Z-0.125000 I1.654263 J-0.630774
G02 X14.865342 Y28.894555 Z-0.125000 I-2.192463 J-0.422741
G02 X14.550005 Y30.014488 Z-0.125000 I5.141825 J2.052131
G03 X14.294847 Y31.148082 Z-0.125000 I-10.973919 J-1.874577
G03 X13.955949 Y32.043699 Z-0.125000 I-2.034409 J-0.257885
G03 X13.317070 Y32.745767 Z-0.125000 I-2.794115 J-1.900911
G03 X12.720620 Y32.381608 Z-0.125000 I-0.219812 J-0.310512
G02 X12.165599 Y32.101901 Z-0.125000 I-0.324684 J-0.046246
G01 X12.000531 Y31.928642 Z-0.125000
G03 X12.240467 Y31.646704 Z-0.125000 I1.086731 J0.681770
G02 X12.223812 Y30.260493 Z-0.125000 I-12.496238 J-0.543064
G03 X12.155118 Y28.873591 Z-0.125000 I38.552753 J-2.604703
G02 X12.046628 Y27.725416 Z-0.125000 I-5.412260 J-0.067816
G03 X11.842169 Y26.594608 Z-0.125000 I25.509930 J-5.196281
G02 X11.570351 Y25.665379 Z-0.125000 I-1.633949 J-0.026406
G03 X11.267183 Y24.808256 Z-0.125000 I1.559952 J-1.033939
G02 X11.028221 Y23.887876 Z-0.125000 I-1.926107 J0.008872
G03 X11.327077 Y23.047358 Z-0.125000 I0.522306 J-0.287678
G02 X11.635104 Y22.391155 Z-0.125000 I-0.079984 J-0.437942
G03 X11.511253 Y21.512563 Z-0.125000 I1.062808 J-0.597845
G02 X11.301381 Y19.157085 Z-0.125000 I-34.451527 J1.882520
G03 X11.069531 Y16.804861 Z-0.125000 I47.122558 J-5.832233
G03 X11.435398 Y16.741971 Z-0.125000 I0.191849 J0.020420
G02 X12.042816 Y17.138771 Z-0.125000 I0.630500 J-0.301847
G03 X12.682904 Y17.474159 Z-0.125000 I-0.326360 J1.401358
G02 X13.323060 Y17.701779 Z-0.125000 I0.593184 J-0.654268
G03 X13.515393 Y17.388317 Z-0.125000 I0.528261 J0.108392
G03 X13.927993 Y17.204656 Z-0.125000 I0.560483 J0.703849
G02 X14.113895 Y16.736459 Z-0.125000 I-1.356127 J-0.809467
G02 X14.208000 Y16.211907 Z-0.125000 I-6.459273 J-1.429517
G01 X14.354627 Y16.217723 Z-0.125000
G03 X14.386186 Y16.589242 Z-0.125000 I-6.452324 J0.735185
G03 X14.042734 Y20.703078 Z-0.125000 I-138.184733 J-9.465367
G03 X13.627024 Y24.811251 Z-0.125000 I-774.975455 J-76.345410
G02 X13.451243 Y26.474515 Z-0.125000 I21.516166 J3.114846
G03 X13.149366 Y28.118921 Z-0.125000 I-7.285358 J-0.487522
G02 X12.813173 Y29.272733 Z-0.125000 I6.446716 J2.504299
G02 X12.677697 Y30.466783 Z-0.125000 I7.060923 J1.405839
G02 X12.972646 Y30.763339 Z-0.125000 I0.218505 J0.077633
G02 X13.366483 Y30.526677 Z-0.125000 I-0.371783 J-1.064725
G02 X13.795404 Y28.436727 Z-0.125000 I-5.693694 J-2.257506
G03 X14.380196 Y26.365510 Z-0.125000 I4.385374 J0.120013
G03 X15.013561 Y25.745893 Z-0.125000 I0.772090 J0.155703
G03 X15.819160 Y26.097484 Z-0.125000 I0.139429 J0.779256
G03 X16.308146 Y27.289445 Z-0.125000 I-3.435704 J2.105731
G03 X16.537894 Y28.557648 Z-0.125000 I-12.675813 J2.951261
G02 X17.068913 Y27.352228 Z-0.125000 I-12.766124 J-6.343484
G02 X17.467755 Y26.100478 Z-0.125000 I-10.171951 J-3.930479
G02 X16.878179 Y25.033881 Z-0.125000 I-3.256582 J1.103870
G03 X16.215961 Y24.004172 Z-0.125000 I4.263357 J-3.469613
G03 X15.766938 Y22.776740 Z-0.125000 I4.412068 J-2.309883
G03 X15.678408 Y21.472135 Z-0.125000 I4.232784 J-0.942542
G02 X15.858084 Y20.060974 Z-0.125000 I-15.867125 J-2.737301
G03 X16.211469 Y18.678060 Z-0.125000 I4.260457 J0.352093
G02 X16.932198 Y17.308656 Z-0.125000 I-23.263205 J-13.118002
G02 X17.566581 Y15.895963 Z-0.125000 I-20.806524 J-10.192134
G03 X17.384045 Y15.201929 Z-0.125000 I3.638442 J-1.327957
G03 X17.367432 Y14.482454 Z-0.125000 I2.520247 J-0.418124
G02 X17.327831 Y13.397705 Z-0.125000 I-1.853562 J-0.475430
G03 X17.076943 Y12.354704 Z-0.125000 I5.785131 J-1.943255
G03 X16.996155 Y10.317118 Z-0.125000 I11.671994 J-1.483181
G02 X16.931700 Y8.275890 Z-0.125000 I-12.973317 J-0.611981
G02 X16.690535 Y7.446915 Z-0.125000 I-1.345142 J-0.058239
G03 X16.263877 Y6.787515 Z-0.125000 I9.152622 J-6.389850
G02 X16.632205 Y5.709219 Z-0.125000 I-5.765748 J-2.571541
G02 X16.807419 Y4.581900 Z-0.125000 I-6.559269 J-1.596752
G02 X16.806324 Y4.512769 Z-0.125000 I-15.724328 J0.214488
G03 X16.805923 Y4.475590 Z-0.125000 I2.561370 J-0.046203
G03 X16.920939 Y4.005155 Z-0.125000 I50.399202 J12.072735
G03 X17.057480 Y3.461876 Z-0.125000 I153.457982 J38.279420
G02 X17.104524 Y3.292950 Z-0.125000 I-1.335640 J-0.462977
G03 X17.123364 Y3.213315 Z-0.125000 I1.758549 J0.373985
G03 X17.561619 Y2.845865 Z-0.125000 I0.536426 J0.194715
G03 X18.174511 Y3.235779 Z-0.125000 I0.092714 J0.530916
G03 X18.283934 Y3.723855 Z-0.125000 I-5.288587 J1.441959
G03 X18.316760 Y4.098262 Z-0.125000 I-2.118763 J0.374407
G02 X18.376487 Y4.573560 Z-0.125000 I1.921035 J-0.000000
G02 X18.521899 Y5.020637 Z-0.125000 I3.536660 J-0.903111
G02 X18.507540 Y5.045296 Z-0.125000 I0.142557 J0.099519
G01 X18.488957 Y5.070049 Z-0.125000
G02 X18.034735 Y6.401291 Z-0.125000 I4.169403 J2.165720
G02 X18.132585 Y7.820702 Z-0.125000 I2.858965 J0.515990
G03 X18.480567 Y9.025702 Z-0.125000 I-13.893809 J4.665022
G02 X18.836345 Y10.220974 Z-0.125000 I11.892279 J-2.889212
G02 X19.228709 Y9.323487 Z-0.125000 I-8.687331 J-4.332434
G02 X19.571548 Y8.401677 Z-0.125000 I-82.094487 J-31.057233
G02 X20.083808 Y6.628209 Z-0.125000 I-5.662922 J-2.596430
G02 X20.101616 Y4.784053 Z-0.125000 I-7.460099 J-0.994202
G03 X20.077204 Y4.055733 Z-0.125000 I2.055134 J-0.433452
G03 X20.314240 Y3.035134 Z-0.125000 I5.945660 J0.843064
G01 X20.340200 Y3.009529 Z-0.125000
G03 X20.504405 Y2.684755 Z-0.125000 I0.604135 J0.101551
G03 X20.916909 Y2.506041 Z-0.125000 I0.575403 J0.762712
G03 X21.576516 Y2.975243 Z-0.125000 I0.097180 J0.561624
G03 X21.604898 Y3.198841 Z-0.125000 I-4.552476 J0.691474
G03 X21.613950 Y3.376535 Z-0.125000 I-1.739757 J0.177694
G02 X21.675278 Y3.673219 Z-0.125000 I0.748291 J-0.000000
G02 X21.858019 Y4.014411 Z-0.125000 I2.116617 J-0.914120
G03 X21.837103 Y4.571847 Z-0.125000 I-1.659984 J0.216824
G03 X21.652880 Y5.138928 Z-0.125000 I-2.677993 J-0.556510
G02 X21.546147 Y6.002489 Z-0.125000 I159.040199 J20.095230
G03 X21.330949 Y6.850414 Z-0.125000 I-3.394257 J-0.410170
G02 X20.960456 Y8.436356 Z-0.125000 I7.945424 J2.692383
G02 X20.805375 Y10.060757 Z-0.125000 I21.808930 J2.901697
G03 X20.714717 Y11.467984 Z-0.125000 I-7.349039 J0.233087
G03 X20.411569 Y12.842852 Z-0.125000 I-12.274256 J-1.985526
G02 X20.475177 Y13.652586 Z-0.125000 I3.982554 J0.094521
G03 X20.517882 Y14.474976 Z-0.125000 I-3.157641 J0.576274
G03 X20.354668 Y15.420579 Z-0.125000 I-43.860005 J-7.083463
G02 X20.233382 Y16.376624 Z-0.125000 I8.538847 J1.568970
G03 X20.759444 Y17.559403 Z-0.125000 I-6.292688 J3.507158
G02 X21.199181 Y18.775396 Z-0.125000 I33.136739 J-11.295673
G02 X21.726204 Y19.554404 Z-0.125000 I1.753757 J-0.618693
G03 X22.286264 Y20.313186 Z-0.125000 I-1.460588 J1.664148
G02 X22.683552 Y21.316131 Z-0.125000 I3.964044 J-0.990082
G03 X23.054410 Y22.324142 Z-0.125000 I-2.998021 J1.675231
G03 X23.005660 Y23.484857 Z-0.125000 I-20.597829 J-0.283737
G02 X22.958580 Y24.649544 Z-0.125000 I19.527556 J1.372646
G03 X22.731636 Y26.482077 Z-0.125000 I-8.285061 J-0.095720
G02 X22.374608 Y28.288131 Z-0.125000 I22.550377 J5.396155
G02 X22.359981 Y28.718276 Z-0.125000 I0.607695 J0.235987
G03 X22.477927 Y29.123659 Z-0.125000 I-10.449552 J3.260161
G03 X22.459409 Y30.058269 Z-0.125000 I-1.873261 J0.430372
G02 X22.248830 Y30.953434 Z-0.125000 I12.897306 J3.506316
G03 X21.961276 Y31.877514 Z-0.125000 I-6.568905 J-1.537325
G03 X21.419293 Y32.684384 Z-0.125000 I-2.092054 J-0.819790
G02 X20.775906 Y34.673515 Z-0.125000 I4.881556 J2.677565
G03 X20.210920 Y36.688319 Z-0.125000 I-6.973890 J-0.868980
G03 X19.502256 Y37.542176 Z-0.125000 I-6.028528 J-4.282407
G03 X18.497940 Y38.055409 Z-0.125000 I-1.250071 J-1.206928
G03 X18.391452 Y38.062301 Z-0.125000 I-0.122837 J-1.071930
G03 X18.294298 Y38.058404 Z-0.125000 I-0.013342 J-0.880385
G01 X18.294298 Y38.058404 Z-0.125000
G00 Z5.000000

(End cutting path id: path1587)


(Start cutting path id: path1587)
(Change tool to Default tool)

G00 Z5.000000
G00 X17.374918 Y37.511867

G01 Z-0.125000 F100.0(Penetrate)
G03 X17.396977 Y37.533187 Z-0.125000 I-7.749110 J8.039743 F400.000000
G02 X17.419840 Y37.555291 Z-0.125000 I9.227052 J-9.520622
G01 X17.383401 Y37.537319 Z-0.125000
G01 X17.374918 Y37.511867 Z-0.125000
G01 X17.374918 Y37.511867 Z-0.125000
G00 Z5.000000

(End cutting path id: path1587)


(Start cutting path id: path1587)
(Change tool to Default tool)

G00 Z5.000000
G00 X12.451595 Y31.549375

G01 Z-0.125000 F100.0(Penetrate)
G02 X12.588646 Y30.404906 Z-0.125000 I-10.423879 J-1.828707 F400.000000
G03 X12.683686 Y29.249429 Z-0.125000 I33.308966 J2.158072
G02 X12.490319 Y28.708899 Z-0.125000 I-0.936698 J0.030239
G03 X12.390204 Y28.096461 Z-0.125000 I0.520202 J-0.399439
G03 X12.403769 Y27.909029 Z-0.125000 I4.743387 J0.249084
G02 X12.400685 Y27.720623 Z-0.125000 I-0.867222 J-0.080036
G02 X12.219067 Y28.535165 Z-0.125000 I0.653676 J0.573269
G03 X12.292876 Y29.444086 Z-0.125000 I-2.203080 J0.636357
G03 X12.329891 Y30.521686 Z-0.125000 I-8.512768 J0.831849
G02 X12.451596 Y31.549375 Z-0.125000 I3.540487 J0.101767
G01 X12.451595 Y31.549375 Z-0.125000
G00 Z5.000000

(End cutting path id: path1587)


(Footer)
M5
G00 X0.0000 Y0.0000
M2
(Using default footer. To add your own footer create file "footer" in the output dir.)
(end)
%