%
(Header)
(Generated by gcodetools from Inkscape.)
(Using default header. To add your own header create file "header" in the output dir.)
M3
(Header end.)
G21 (All units in mm)

(Start cutting path id: path8221)
(Change tool to Default tool)

G00 Z5.000000
G00 X16.597586 Y8.072120

G01 Z-1.000000 F100.0(Penetrate)
G01 X14.282712 Y8.072120 Z-1.000000 F400.000000
G01 X14.976007 Y9.950586 Z-1.000000
G01 X17.291691 Y9.950586 Z-1.000000
G01 X16.597586 Y8.072120 Z-1.000000
G00 Z5.000000

(End cutting path id: path8221)


(Start cutting path id: path8221)
(Change tool to Default tool)

G00 Z5.000000
G00 X42.495168 Y14.188031

G01 Z-1.000000 F100.0(Penetrate)
G01 X42.495168 Y2.952931 Z-1.000000 F400.000000
G01 X44.311517 Y2.952931 Z-1.000000
G03 X44.772526 Y2.978910 Z-1.000000 I0.000000 J4.103296
G03 X45.141848 Y3.097268 Z-1.000000 I-0.111007 J0.981781
G01 X45.597558 Y3.350745 Z-1.000000
G01 X45.597558 Y1.540394 Z-1.000000
G01 X40.779367 Y1.540394 Z-1.000000
G03 X40.933105 Y1.829246 Z-1.000000 I-1.242631 J0.846715
G03 X41.037222 Y2.205310 Z-1.000000 I-1.650588 J0.659426
G03 X41.050195 Y2.311819 Z-1.000000 I-1.321209 J0.214961
G03 X41.063159 Y2.479382 Z-1.000000 I-21.501812 J1.747831
G03 X41.072562 Y2.648128 Z-1.000000 I-5.080482 J0.367733
G03 X41.076141 Y2.831304 Z-1.000000 I-4.685470 J0.183176
G01 X41.076141 Y16.739514 Z-1.000000
G03 X41.063788 Y17.131388 Z-1.000000 I-6.221936 J-0.000000
G03 X41.037222 Y17.353991 Z-1.000000 I-2.007496 J-0.126689
G03 X40.931881 Y17.730000 Z-1.000000 I-1.912170 J-0.332946
G03 X40.779364 Y18.018258 Z-1.000000 I-1.349275 J-0.529422
G01 X44.507743 Y18.062392 Z-1.000000
G01 X44.507743 Y16.252365 Z-1.000000
G03 X44.149752 Y16.457981 Z-1.000000 I-2.701536 J-4.289107
G03 X43.909322 Y16.563092 Z-1.000000 I-0.886480 J-1.700195
G03 X43.655021 Y16.628825 Z-1.000000 I-0.488618 J-1.365535
G03 X43.221701 Y16.650826 Z-1.000000 I-0.314872 J-1.923317
G01 X42.495163 Y16.606692 Z-1.000000
G01 X42.495163 Y15.613866 Z-1.000000
G01 X45.740267 Y15.613866 Z-1.000000
G01 X45.740267 Y13.796543 Z-1.000000
G03 X45.553665 Y13.908949 Z-1.000000 I-5.332501 J-8.641224
G03 X45.433756 Y13.974448 Z-1.000000 I-1.099410 J-1.870194
G03 X45.309158 Y14.035466 Z-1.000000 I-2.733015 J-5.423098
G03 X45.171036 Y14.093159 Z-1.000000 I-0.665911 J-1.400057
G03 X44.886231 Y14.161527 Z-1.000000 I-0.443511 J-1.220171
G03 X44.454225 Y14.188031 Z-1.000000 I-0.432006 J-3.507471
G01 X42.495168 Y14.188031 Z-1.000000
G00 Z5.000000

(End cutting path id: path8221)


(Start cutting path id: path8221)
(Change tool to Default tool)

G00 Z5.000000
G00 X39.146271 Y16.298243

G01 Z-1.000000 F100.0(Penetrate)
G03 X39.120024 Y16.432718 Z-1.000000 I-0.357607 J-0.000000 F400.000000
G03 X39.044104 Y16.552206 Z-1.000000 I-0.365340 J-0.148265
G03 X38.930734 Y16.631112 Z-1.000000 I-0.241447 J-0.226012
G03 X38.792734 Y16.658917 Z-1.000000 I-0.138000 J-0.328540
G01 X36.232005 Y16.658917 Z-1.000000
G01 X36.232005 Y15.730790 Z-1.000000
G01 X38.792734 Y15.730790 Z-1.000000
G03 X38.926373 Y15.755681 Z-1.000000 I0.000000 J0.371203
G03 X39.040859 Y15.828095 Z-1.000000 I-0.125399 J0.324960
G03 X39.139599 Y16.041672 Z-1.000000 I-0.217184 J0.230021
G03 X39.146271 Y16.298243 Z-1.000000 I-4.929443 J0.256571
G01 X39.146271 Y16.298243 Z-1.000000
G00 Z5.000000

(End cutting path id: path8221)


(Start cutting path id: path8221)
(Change tool to Default tool)

G00 Z5.000000
G00 X40.322035 Y16.241801

G01 Z-1.000000 F100.0(Penetrate)
G02 X40.315293 Y16.058182 Z-1.000000 I-2.504026 J-0.000000 F400.000000
G02 X40.292844 Y15.876586 Z-1.000000 I-1.840330 J0.135315
G02 X40.248260 Y15.698789 Z-1.000000 I-1.494961 J0.280390
G02 X40.171215 Y15.499207 Z-1.000000 I-1.635206 J0.516577
G02 X40.072250 Y15.310063 Z-1.000000 I-1.911798 J0.879841
G02 X39.962009 Y15.148100 Z-1.000000 I-1.302533 J0.768073
G02 X39.837025 Y14.997522 Z-1.000000 I-2.376614 J1.845513
G02 X39.715505 Y14.872894 Z-1.000000 I-1.372867 J1.217060
G02 X39.385836 Y14.642160 Z-1.000000 I-1.018057 J1.103706
G02 X38.998695 Y14.505240 Z-1.000000 I-0.692666 J1.342732
G02 X38.860632 Y14.484579 Z-1.000000 I-0.249057 J1.192619
G02 X38.638669 Y14.474447 Z-1.000000 I-0.221963 J2.426277
G01 X36.236871 Y14.474447 Z-1.000000
G01 X36.236871 Y3.064849 Z-1.000000
G03 X36.239949 Y2.882425 Z-1.000000 I5.407025 J-0.000000
G02 X36.244970 Y2.729154 Z-1.000000 I-77.121450 J-2.603422
G03 X36.253363 Y2.578316 Z-1.000000 I3.238281 J0.104522
G03 X36.267689 Y2.463188 Z-1.000000 I1.288215 J0.101848
G03 X36.362013 Y2.108540 Z-1.000000 I2.049612 J0.355255
G03 X36.515814 Y1.773944 Z-1.000000 I2.097914 J0.761685
G01 X34.522695 Y1.773944 Z-1.000000
G03 X34.676358 Y2.062083 Z-1.000000 I-1.249198 J0.851236
G03 X34.780553 Y2.437237 Z-1.000000 I-1.633980 J0.655866
G03 X34.793513 Y2.544913 Z-1.000000 I-1.413784 J0.224783
G03 X34.806489 Y2.712932 Z-1.000000 I-17.427730 J1.430467
G03 X34.815893 Y2.881679 Z-1.000000 I-5.080576 J0.367740
G03 X34.819472 Y3.064849 Z-1.000000 I-4.685250 J0.183169
G01 X34.819472 Y16.783648 Z-1.000000
G03 X34.807111 Y17.175610 Z-1.000000 I-6.220647 J-0.000000
G03 X34.780550 Y17.398122 Z-1.000000 I-2.006775 J-0.126698
G03 X34.675166 Y17.774348 Z-1.000000 I-1.912372 J-0.332800
G03 X34.522690 Y18.062392 Z-1.000000 I-1.346103 J-0.528184
G01 X38.638666 Y18.062392 Z-1.000000
G02 X38.955646 Y18.030411 Z-1.000000 I-0.000000 J-1.586867
G02 X39.337638 Y17.920163 Z-1.000000 I-0.497678 J-2.441275
G02 X39.691125 Y17.742710 Z-1.000000 I-0.670354 J-1.776151
G02 X39.924708 Y17.547647 Z-1.000000 I-0.652159 J-1.018328
G02 X40.102009 Y17.299447 Z-1.000000 I-0.986535 J-0.892155
G02 X40.227976 Y17.004366 Z-1.000000 I-1.379806 J-0.763452
G02 X40.306226 Y16.602716 Z-1.000000 I-1.868987 J-0.572569
G02 X40.322035 Y16.241821 Z-1.000000 I-4.111586 J-0.360894
G01 X40.322035 Y16.241801 Z-1.000000
G00 Z5.000000

(End cutting path id: path8221)


(Start cutting path id: path8221)
(Change tool to Default tool)

G00 Z5.000000
G00 X24.823056 Y14.232306

G01 Z-1.000000 F100.0(Penetrate)
G01 X24.823056 Y6.077540 Z-1.000000 F400.000000
G01 X25.538244 Y6.077540 Z-1.000000
G03 X26.001629 Y6.103903 Z-1.000000 I-0.000000 J4.085645
G03 X26.368575 Y6.222199 Z-1.000000 I-0.111039 J0.972705
G01 X26.824284 Y6.476165 Z-1.000000
G01 X26.824284 Y4.665974 Z-1.000000
G01 X23.107254 Y4.665974 Z-1.000000
G03 X23.261785 Y4.954251 Z-1.000000 I-1.184590 J0.820556
G03 X23.366732 Y5.330241 Z-1.000000 I-1.712071 J0.680521
G03 X23.379694 Y5.437477 Z-1.000000 I-1.384678 J0.221773
G03 X23.392683 Y5.605453 Z-1.000000 I-18.254212 J1.495945
G03 X23.401316 Y5.773893 Z-1.000000 I-3.919222 J0.285327
G03 X23.404034 Y5.956560 Z-1.000000 I-6.138333 J0.182667
G01 X23.404034 Y16.783629 Z-1.000000
G03 X23.391928 Y17.175719 Z-1.000000 I-6.355986 J-0.000000
G03 X23.366733 Y17.398105 Z-1.000000 I-2.187172 J-0.135181
G03 X23.261234 Y17.773971 Z-1.000000 I-1.900689 J-0.330750
G03 X23.107254 Y18.062372 Z-1.000000 I-1.320858 J-0.519911
G01 X26.670219 Y18.062372 Z-1.000000
G01 X26.670219 Y16.252345 Z-1.000000
G03 X26.314054 Y16.457791 Z-1.000000 I-2.620909 J-4.132210
G03 X26.073418 Y16.563072 Z-1.000000 I-0.884663 J-1.694393
G03 X25.817776 Y16.623675 Z-1.000000 I-0.407871 J-1.151039
G03 X25.384178 Y16.650806 Z-1.000000 I-0.433597 J-3.451161
G01 X24.823056 Y16.650806 Z-1.000000
G01 X24.823056 Y15.658141 Z-1.000000
G01 X27.644886 Y15.658141 Z-1.000000
G01 X27.644886 Y13.840819 Z-1.000000
G03 X27.458335 Y13.953072 Z-1.000000 I-5.571825 J-9.048539
G03 X27.338377 Y14.018723 Z-1.000000 I-1.129200 J-1.920862
G03 X27.214954 Y14.079459 Z-1.000000 I-1.799655 J-3.501296
G03 X27.075655 Y14.137431 Z-1.000000 I-0.706635 J-1.501615
G03 X26.790875 Y14.205727 Z-1.000000 I-0.444681 J-1.226349
G03 X26.358845 Y14.232306 Z-1.000000 I-0.432030 J-3.497933
G01 X24.823056 Y14.232306 Z-1.000000
G00 Z5.000000

(End cutting path id: path8221)


(Start cutting path id: path8221)
(Change tool to Default tool)

G00 Z5.000000
G00 X6.998500 Y1.540394

G01 Z-1.000000 F100.0(Penetrate)
G01 X3.729233 Y1.540394 Z-1.000000 F400.000000
G01 X0.219946 Y1.540394 Z-1.000000
G03 X0.374116 Y1.829397 Z-1.000000 I-1.218128 J0.835438
G03 X0.478450 Y2.205310 Z-1.000000 I-1.678011 J0.668167
G03 X0.491597 Y2.311839 Z-1.000000 I-1.230184 J0.205887
G03 X0.504586 Y2.479382 Z-1.000000 I-35.361940 J2.825868
G03 X0.513503 Y2.648133 Z-1.000000 I-3.988826 J0.295387
G03 X0.516404 Y2.831304 Z-1.000000 I-5.782513 J0.183171
G01 X0.516404 Y16.783629 Z-1.000000
G03 X0.504516 Y17.175767 Z-1.000000 I-6.474003 J0.000000
G03 X0.478450 Y17.398105 Z-1.000000 I-1.992732 J-0.120924
G03 X0.373098 Y17.774148 Z-1.000000 I-1.910396 J-0.332439
G03 X0.219946 Y18.062372 Z-1.000000 I-1.330819 J-0.522348
G01 X2.329024 Y18.062372 Z-1.000000
G03 X2.019357 Y17.343922 Z-1.000000 I3.145191 J-1.781602
G03 X1.935098 Y16.783629 Z-1.000000 I1.820751 J-0.560294
G01 X1.935098 Y2.952931 Z-1.000000
G01 X5.719757 Y2.952931 Z-1.000000
G03 X6.261125 Y3.034771 Z-1.000000 I0.000000 J1.831480
G03 X6.998500 Y3.350745 Z-1.000000 I-1.133751 J3.664158
G01 X6.998500 Y1.540394 Z-1.000000
G00 Z5.000000

(End cutting path id: path8221)


(Start cutting path id: path8221)
(Change tool to Default tool)

G00 Z5.000000
G00 X4.964188 Y14.232306

G01 Z-1.000000 F100.0(Penetrate)
G01 X4.964188 Y6.077540 Z-1.000000 F400.000000
G01 X5.680349 Y6.077540 Z-1.000000
G03 X6.141988 Y6.103785 Z-1.000000 I-0.000000 J4.073115
G03 X6.510680 Y6.222199 Z-1.000000 I-0.112015 J0.981956
G01 X6.966228 Y6.476165 Z-1.000000
G01 X6.966228 Y4.665974 Z-1.000000
G01 X3.249035 Y4.665974 Z-1.000000
G03 X3.403044 Y4.954109 Z-1.000000 I-1.204728 J0.829156
G03 X3.507540 Y5.330241 Z-1.000000 I-1.683134 J0.670189
G03 X3.520668 Y5.437497 Z-1.000000 I-1.285312 J0.211745
G03 X3.533652 Y5.605453 Z-1.000000 I-26.669694 J2.146175
G03 X3.542582 Y5.773897 Z-1.000000 I-3.978041 J0.295353
G03 X3.545488 Y5.956560 Z-1.000000 I-5.738561 J0.182662
G01 X3.545488 Y16.783629 Z-1.000000
G03 X3.533592 Y17.175616 Z-1.000000 I-6.464267 J-0.000000
G03 X3.507540 Y17.398105 Z-1.000000 I-2.001421 J-0.121588
G03 X3.402186 Y17.774148 Z-1.000000 I-1.910346 J-0.332431
G03 X3.249035 Y18.062372 Z-1.000000 I-1.330899 J-0.522388
G01 X6.811837 Y18.062372 Z-1.000000
G01 X6.811837 Y16.252345 Z-1.000000
G03 X6.455366 Y16.457702 Z-1.000000 I-2.642755 J-4.175384
G03 X6.214064 Y16.563072 Z-1.000000 I-0.879732 J-1.685651
G03 X5.959636 Y16.623648 Z-1.000000 I-0.404876 J-1.135932
G03 X5.525959 Y16.650806 Z-1.000000 I-0.433677 J-3.448998
G01 X4.964188 Y16.650806 Z-1.000000
G01 X4.964188 Y15.658141 Z-1.000000
G01 X7.786342 Y15.658141 Z-1.000000
G01 X7.786342 Y13.840819 Z-1.000000
G03 X7.600137 Y13.953051 Z-1.000000 I-6.384005 J-10.381130
G03 X7.480319 Y14.018723 Z-1.000000 I-1.081669 J-1.831351
G03 X7.355668 Y14.079642 Z-1.000000 I-2.152362 J-4.246120
G03 X7.216948 Y14.137431 Z-1.000000 I-0.707035 J-1.501805
G03 X6.932624 Y14.205733 Z-1.000000 I-0.443259 J-1.219237
G03 X6.500463 Y14.232306 Z-1.000000 I-0.432161 J-3.500951
G01 X4.964188 Y14.232306 Z-1.000000
G00 Z5.000000

(End cutting path id: path8221)


(Start cutting path id: path8221)
(Change tool to Default tool)

G00 Z5.000000
G00 X15.318356 Y15.211027

G01 Z-1.000000 F100.0(Penetrate)
G02 X14.858917 Y12.740683 Z-1.000000 I-8.958620 J0.388246 F400.000000
G03 X13.154305 Y7.448725 Z-1.000000 I205.330796 J-69.060368
G02 X12.174859 Y4.430322 Z-1.000000 I-101.289528 J31.199460
G02 X10.903490 Y2.289641 Z-1.000000 I-5.727648 J1.953820
G02 X9.467385 Y1.590737 Z-1.000000 I-1.608654 J1.480552
G02 X8.120745 Y1.532289 Z-1.000000 I-1.493168 J18.860128
G03 X8.271842 Y1.979365 Z-1.000000 I-2.621900 J1.135182
G03 X8.379413 Y2.581552 Z-1.000000 I-4.469843 J1.109170
G03 X8.405896 Y2.924033 Z-1.000000 I-4.572057 J0.525807
G03 X8.417361 Y3.499460 Z-1.000000 I-14.433995 J0.575426
G01 X8.417361 Y16.133959 Z-1.000000
G03 X8.413954 Y16.404177 Z-1.000000 I-10.716894 J0.000000
G03 X8.405525 Y16.658754 Z-1.000000 I-16.153975 J-0.407439
G03 X8.391185 Y16.906286 Z-1.000000 I-253.713587 J-14.574076
G03 X8.379414 Y17.069867 Z-1.000000 I-6.073468 J-0.354824
G03 X8.271333 Y17.642995 Z-1.000000 I-4.065638 J-0.469947
G03 X8.120746 Y18.062372 Z-1.000000 I-2.478609 J-0.653276
G01 X11.888213 Y18.062372 Z-1.000000
G02 X14.862445 Y16.621037 Z-1.000000 I-0.000000 J-3.789371
G02 X15.318357 Y15.211027 Z-1.000000 I-1.670626 J-1.318892
G01 X15.318356 Y15.211027 Z-1.000000
G00 Z5.000000

(End cutting path id: path8221)


(Start cutting path id: path8221)
(Change tool to Default tool)

G00 Z5.000000
G00 X9.838980 Y16.593394

G01 Z-1.000000 F100.0(Penetrate)
G01 X9.838980 Y3.526866 Z-1.000000 F400.000000
G03 X10.339813 Y4.308289 Z-1.000000 I-3.401758 J2.731480
G03 X10.801970 Y5.365434 Z-1.000000 I-10.072210 J5.032909
G03 X12.379655 Y10.057024 Z-1.000000 I-1306.141117 J441.839397
G03 X13.565092 Y14.207657 Z-1.000000 I-46.110427 J15.413919
G03 X13.564436 Y15.558617 Z-1.000000 I-2.830761 J0.674106
G03 X12.355436 Y16.571502 Z-1.000000 I-1.286580 J-0.307701
G03 X11.097093 Y16.582438 Z-1.000000 I-0.973564 J-39.622935
G02 X9.838980 Y16.593374 Z-1.000000 I-0.284686 J39.621039
G01 X9.838980 Y16.593394 Z-1.000000
G00 Z5.000000

(End cutting path id: path8221)


(Start cutting path id: path8221)
(Change tool to Default tool)

G00 Z5.000000
G00 X22.773500 Y18.062372

G01 Z-1.000000 F100.0(Penetrate)
G01 X17.073080 Y3.141864 Z-1.000000 F400.000000
G01 X25.155837 Y3.141864 Z-1.000000
G03 X25.646513 Y3.167068 Z-1.000000 I0.000000 J4.788852
G03 X26.002386 Y3.229604 Z-1.000000 I-0.259817 J2.522391
G03 X26.345946 Y3.345843 Z-1.000000 I-0.553161 J2.200797
G03 X26.745143 Y3.547626 Z-1.000000 I-1.431589 J3.327936
G01 X26.745143 Y1.780413 Z-1.000000
G01 X14.887459 Y1.780413 Z-1.000000
G01 X20.637667 Y16.719567 Z-1.000000
G01 X18.540756 Y16.719567 Z-1.000000
G03 X18.356925 Y16.712161 Z-1.000000 I0.000000 J-2.285299
G03 X18.188838 Y16.691175 Z-1.000000 I0.156021 J-1.933303
G03 X18.022981 Y16.654025 Z-1.000000 I0.270788 J-1.597715
G03 X17.830433 Y16.598573 Z-1.000000 I3.561684 J-12.729414
G03 X17.585093 Y16.511034 Z-1.000000 I0.687793 J-2.315220
G03 X17.170384 Y16.313957 Z-1.000000 I1.889888 J-4.511759
G01 X17.170384 Y18.062361 Z-1.000000
G01 X22.773500 Y18.062372 Z-1.000000
G00 Z5.000000

(End cutting path id: path8221)


(Start cutting path id: path8221)
(Change tool to Default tool)

G00 Z5.000000
G00 X32.596385 Y16.298243

G01 Z-1.000000 F100.0(Penetrate)
G03 X32.570881 Y16.432698 Z-1.000000 I-0.367176 J-0.000000 F400.000000
G03 X32.495837 Y16.552206 Z-1.000000 I-0.355415 J-0.139863
G03 X32.381705 Y16.630794 Z-1.000000 I-0.247622 J-0.237449
G03 X32.242845 Y16.658917 Z-1.000000 I-0.138860 J-0.328752
G01 X29.683738 Y16.658917 Z-1.000000
G01 X29.683738 Y15.730790 Z-1.000000
G01 X32.242845 Y15.730790 Z-1.000000
G03 X32.378418 Y15.755965 Z-1.000000 I0.000000 J0.377642
G03 X32.492595 Y15.828095 Z-1.000000 I-0.124330 J0.323236
G03 X32.590519 Y16.041674 Z-1.000000 I-0.215193 J0.227903
G03 X32.596385 Y16.298243 Z-1.000000 I-5.608608 J0.256569
G01 X32.596385 Y16.298243 Z-1.000000
G00 Z5.000000

(End cutting path id: path8221)


(Start cutting path id: path8221)
(Change tool to Default tool)

G00 Z5.000000
G00 X33.773771 Y16.241801

G01 Z-1.000000 F100.0(Penetrate)
G02 X33.766213 Y16.058181 Z-1.000000 I-2.234517 J-0.000000 F400.000000
G02 X33.742955 Y15.876586 Z-1.000000 I-2.022673 J0.166776
G02 X33.699069 Y15.698893 Z-1.000000 I-1.296412 J0.225913
G02 X33.621325 Y15.499207 Z-1.000000 I-1.713573 J0.552170
G02 X33.523912 Y15.310264 Z-1.000000 I-1.763738 J0.789750
G02 X33.413743 Y15.148100 Z-1.000000 I-1.287638 J0.756276
G02 X33.287926 Y14.997277 Z-1.000000 I-3.058728 J2.423701
G02 X33.167238 Y14.872894 Z-1.000000 I-1.305536 J1.146006
G02 X32.837569 Y14.642160 Z-1.000000 I-1.018057 J1.103706
G02 X32.450428 Y14.505240 Z-1.000000 I-0.692666 J1.342732
G02 X32.309942 Y14.484468 Z-1.000000 I-0.256972 J1.252507
G02 X32.090403 Y14.474447 Z-1.000000 I-0.219539 J2.399737
G01 X29.688604 Y14.474447 Z-1.000000
G01 X29.688604 Y3.064849 Z-1.000000
G03 X29.690808 Y2.882425 Z-1.000000 I7.549602 J-0.000000
G03 X29.695095 Y2.729154 Z-1.000000 I20.191618 J0.488039
G03 X29.704924 Y2.578295 Z-1.000000 I4.487902 J0.216655
G03 X29.719423 Y2.463188 Z-1.000000 I1.332214 J0.109334
G03 X29.813626 Y2.108255 Z-1.000000 I2.063261 J0.357645
G03 X29.965927 Y1.773944 Z-1.000000 I2.154630 J0.779733
G01 X27.972808 Y1.773944 Z-1.000000
G03 X28.127361 Y2.062366 Z-1.000000 I-1.202085 J0.829765
G03 X28.232286 Y2.437237 Z-1.000000 I-1.696565 J0.676985
G03 X28.245246 Y2.544913 Z-1.000000 I-1.413784 J0.224783
G03 X28.258223 Y2.712932 Z-1.000000 I-17.427730 J1.430467
G03 X28.266840 Y2.881679 Z-1.000000 I-3.968518 J0.287247
G03 X28.269568 Y3.064849 Z-1.000000 I-6.147600 J0.183169
G01 X28.269568 Y16.783648 Z-1.000000
G03 X28.258244 Y17.175609 Z-1.000000 I-6.788941 J0.000000
G03 X28.232267 Y17.398122 Z-1.000000 I-1.914283 J-0.110706
G03 X28.126765 Y17.773992 Z-1.000000 I-1.900918 J-0.330822
G03 X27.972787 Y18.062392 Z-1.000000 I-1.320811 J-0.519882
G01 X32.090388 Y18.062392 Z-1.000000
G02 X32.407363 Y18.030411 Z-1.000000 I-0.000000 J-1.586847
G02 X32.789360 Y17.920163 Z-1.000000 I-0.497695 J-2.441356
G02 X33.143010 Y17.742484 Z-1.000000 I-0.668684 J-1.771727
G02 X33.374807 Y17.547647 Z-1.000000 I-0.636773 J-0.992872
G02 X33.553682 Y17.299070 Z-1.000000 I-0.966235 J-0.883946
G02 X33.679695 Y17.004366 Z-1.000000 I-1.369543 J-0.759897
G02 X33.757947 Y16.602716 Z-1.000000 I-1.869053 J-0.572589
G02 X33.773756 Y16.241821 Z-1.000000 I-4.111243 J-0.360894
G01 X33.773771 Y16.241801 Z-1.000000
G00 Z5.000000

(End cutting path id: path8221)


(Start cutting path id: path8221)
(Change tool to Default tool)

G00 Z5.000000
G00 X51.470208 Y1.538772

G01 Z-1.000000 F100.0(Penetrate)
G01 X46.111976 Y1.538772 Z-1.000000 F400.000000
G03 X46.265100 Y1.827553 Z-1.000000 I-1.223886 J0.833942
G03 X46.369831 Y2.203687 Z-1.000000 I-1.725236 J0.683024
G03 X46.382791 Y2.311360 Z-1.000000 I-1.413605 J0.224763
G03 X46.395767 Y2.479382 Z-1.000000 I-17.430915 J1.430700
G03 X46.404413 Y2.647250 Z-1.000000 I-3.834849 J0.281657
G03 X46.407113 Y2.829681 Z-1.000000 I-6.162102 J0.182431
G01 X46.455765 Y16.783629 Z-1.000000
G03 X46.444119 Y17.175875 Z-1.000000 I-5.426269 J0.035192
G03 X46.418464 Y17.398105 Z-1.000000 I-2.274515 J-0.149987
G03 X46.312964 Y17.773972 Z-1.000000 I-1.900829 J-0.330795
G03 X46.158986 Y18.062372 Z-1.000000 I-1.320848 J-0.519900
G01 X48.268871 Y18.062372 Z-1.000000
G03 X47.959513 Y17.343768 Z-1.000000 I3.085260 J-1.754089
G03 X47.874787 Y16.783629 Z-1.000000 I1.862930 J-0.568263
G01 X47.826134 Y2.951314 Z-1.000000
G01 X50.192260 Y2.951314 Z-1.000000
G03 X50.733183 Y3.033668 Z-1.000000 I0.000000 J1.817618
G03 X51.470188 Y3.349614 Z-1.000000 I-1.162585 J3.729538
G01 X51.470208 Y1.538772 Z-1.000000
G00 Z5.000000

(End cutting path id: path8221)


(Start cutting path id: path8221)
(Change tool to Default tool)

G00 Z5.000000
G00 X51.226949 Y4.764905

G01 Z-1.000000 F100.0(Penetrate)
G01 X49.233825 Y4.764905 Z-1.000000 F400.000000
G03 X49.388356 Y5.053171 Z-1.000000 I-1.184508 J0.820531
G03 X49.493306 Y5.429171 Z-1.000000 I-1.711902 J0.680477
G03 X49.506276 Y5.536400 Z-1.000000 I-1.375898 J0.220823
G03 X49.519242 Y5.704377 Z-1.000000 I-18.370139 J1.502479
G03 X49.527882 Y5.872819 Z-1.000000 I-3.944777 J0.286787
G03 X49.530616 Y6.055484 Z-1.000000 I-6.102053 J0.182665
G01 X49.530616 Y16.783629 Z-1.000000
G03 X49.518504 Y17.175719 Z-1.000000 I-6.352671 J0.000000
G03 X49.493300 Y17.398105 Z-1.000000 I-2.187031 J-0.135243
G03 X49.387800 Y17.773971 Z-1.000000 I-1.900616 J-0.330738
G03 X49.233819 Y18.062372 Z-1.000000 I-1.320919 J-0.519948
G01 X51.230183 Y18.062372 Z-1.000000
G03 X51.080231 Y17.741865 Z-1.000000 I1.714970 J-0.997697
G03 X50.999898 Y17.431351 Z-1.000000 I1.586502 J-0.576090
G03 X50.962058 Y17.111950 Z-1.000000 I3.762211 J-0.607661
G03 X50.949623 Y16.783629 Z-1.000000 I4.328180 J-0.328321
G01 X50.949623 Y6.055484 Z-1.000000
G03 X50.951899 Y5.874120 Z-1.000000 I7.227085 J-0.000000
G03 X50.956086 Y5.720921 Z-1.000000 I34.428197 J0.864250
G03 X50.966019 Y5.569003 Z-1.000000 I4.443464 J0.214250
G03 X50.980414 Y5.455277 Z-1.000000 I1.313630 J0.108493
G03 X51.074804 Y5.098971 Z-1.000000 I2.061834 J0.355552
G03 X51.226921 Y4.764905 Z-1.000000 I2.156147 J0.780133
G01 X51.226949 Y4.764905 Z-1.000000
G00 Z5.000000

(End cutting path id: path8221)


(Start cutting path id: path8221)
(Change tool to Default tool)

G00 Z5.000000
G00 X56.317594 Y5.052599

G01 Z-1.000000 F100.0(Penetrate)
G01 X56.306221 Y5.249644 Z-1.000000 F400.000000
G01 X56.260814 Y5.446519 Z-1.000000
G01 X54.097411 Y11.673357 Z-1.000000
G01 X54.056859 Y2.829681 Z-1.000000
G03 X54.059342 Y2.649274 Z-1.000000 I6.555372 J-0.000000
G03 X54.064959 Y2.495604 Z-1.000000 I8.529377 J0.234822
G03 X54.073480 Y2.343724 Z-1.000000 I3.399392 J0.114559
G03 X54.087649 Y2.229635 Z-1.000000 I1.269860 J0.099779
G03 X54.181994 Y1.873873 Z-1.000000 I2.047480 J0.352585
G03 X54.334153 Y1.538772 Z-1.000000 I2.211192 J0.801936
G01 X52.342655 Y1.538772 Z-1.000000
G03 X52.495783 Y1.827555 Z-1.000000 I-1.223733 J0.833876
G03 X52.600510 Y2.203687 Z-1.000000 I-1.725188 J0.682994
G03 X52.613483 Y2.311362 Z-1.000000 I-1.403609 J0.223729
G03 X52.626447 Y2.479382 Z-1.000000 I-17.710310 J1.450921
G03 X52.635106 Y2.647250 Z-1.000000 I-3.849029 J0.282698
G03 X52.637820 Y2.829681 Z-1.000000 I-6.128763 J0.182431
G01 X52.679993 Y16.783629 Z-1.000000
G03 X52.667630 Y17.175741 Z-1.000000 I-6.224388 J0.000000
G03 X52.641057 Y17.398105 Z-1.000000 I-2.000262 J-0.126260
G03 X52.535720 Y17.774324 Z-1.000000 I-1.910721 J-0.332124
G03 X52.383244 Y18.062372 Z-1.000000 I-1.345914 J-0.528070
G01 X54.665034 Y18.062372 Z-1.000000
G03 X54.610986 Y17.856742 Z-1.000000 I1.289437 J-0.448830
G03 X54.593674 Y17.663911 Z-1.000000 I1.065237 J-0.192832
G02 X54.500825 Y15.357290 Z-1.000000 I-28.697957 J0.000000
G03 X54.603439 Y14.600925 Z-1.000000 I1.780573 J-0.143579
G01 X56.317623 Y9.918957 Z-1.000000
G01 X56.317623 Y16.786059 Z-1.000000
G01 X56.317623 Y16.880933 Z-1.000000
G01 X56.317623 Y16.956831 Z-1.000000
G03 X56.305998 Y17.250859 Z-1.000000 I-3.724182 J0.000000
G03 X56.286826 Y17.398105 Z-1.000000 I-1.468098 J-0.116271
G03 X56.177795 Y17.776099 Z-1.000000 I-2.149508 J-0.415298
G03 X56.025681 Y18.062372 Z-1.000000 I-1.287302 J-0.500473
G01 X58.023667 Y18.062372 Z-1.000000
G03 X57.876073 Y17.750615 Z-1.000000 I1.951850 J-1.114878
G03 X57.788514 Y17.436214 Z-1.000000 I1.628042 J-0.622791
G03 X57.768167 Y17.284208 Z-1.000000 I1.848932 J-0.324852
G03 X57.754436 Y17.118192 Z-1.000000 I8.568826 J-0.792329
G03 X57.745764 Y16.954446 Z-1.000000 I3.843135 J-0.285628
G03 X57.743062 Y16.783629 Z-1.000000 I5.398311 J-0.170817
G01 X57.743062 Y1.177126 Z-1.000000
G03 X57.745329 Y0.999128 Z-1.000000 I6.990769 J-0.000000
G03 X57.749525 Y0.847914 Z-1.000000 I33.164986 J0.844717
G03 X57.759010 Y0.694655 Z-1.000000 I2.728622 J0.091954
G03 X57.773853 Y0.581945 Z-1.000000 I1.381356 J0.124571
G03 X57.867626 Y0.225344 Z-1.000000 I2.100354 J0.361690
G03 X58.020360 Y-0.108912 Z-1.000000 I2.041319 J0.730727
G01 X56.027238 Y-0.108912 Z-1.000000
G03 X56.179505 Y0.165986 Z-1.000000 I-1.025930 J0.747881
G03 X56.286719 Y0.551132 Z-1.000000 I-1.685966 J0.676825
G03 X56.310477 Y0.788393 Z-1.000000 I-1.850757 J0.305139
G03 X56.317513 Y1.177126 Z-1.000000 I-10.735165 J0.388734
G01 X56.317594 Y5.052599 Z-1.000000
G00 Z5.000000

(End cutting path id: path8221)


(Footer)
M5
G00 X0.0000 Y0.0000
M2
(Using default footer. To add your own footer create file "footer" in the output dir.)
(end)
%